public/assets/images/logo-twitter3.svg

<svg width="45" height="45" viewBox="0 0 45 45" fill="none" xmlns="http://www.w3.org/2000/svg">
<path d="M22.5 0C10.0748 0 0 10.0748 0 22.5C0 34.9252 10.0748 45 22.5 45C34.9252 45 45 34.9252 45 22.5C45 10.0748 34.9252 0 22.5 0ZM33.3131 16.9604C33.3281 17.1964 33.3281 17.4425 33.3281 17.6836C33.3281 25.0564 27.7132 33.5491 17.4526 33.5491C14.2885 33.5491 11.3555 32.63 8.88449 31.048C9.3365 31.0982 9.76842 31.1183 10.2305 31.1183C12.8421 31.1183 15.2427 30.2344 17.1562 28.7377C14.7054 28.6875 12.6462 27.0804 11.9431 24.8705C12.8019 24.9961 13.5753 24.9961 14.4593 24.7701C13.1973 24.5137 12.063 23.8283 11.2491 22.8304C10.4352 21.8324 9.99184 20.5835 9.99442 19.2958V19.2254C10.7327 19.6423 11.6016 19.8984 12.5106 19.9336C11.7464 19.4243 11.1197 18.7343 10.686 17.9248C10.2524 17.1153 10.0252 16.2113 10.0246 15.293C10.0246 14.2533 10.2958 13.3041 10.7829 12.4805C12.1837 14.2048 13.9316 15.6151 15.913 16.6197C17.8945 17.6243 20.0652 18.2007 22.284 18.3114C21.4955 14.5195 24.3281 11.4509 27.7333 11.4509C29.3404 11.4509 30.7868 12.1239 31.8064 13.2087C33.067 12.9727 34.2723 12.5006 35.3471 11.8677C34.9302 13.1585 34.0564 14.2483 32.8962 14.9364C34.0212 14.8158 35.106 14.5045 36.1105 14.0675C35.3521 15.1825 34.4029 16.1719 33.3131 16.9604Z" fill="#1DA1F2"/>
</svg>

<svg xmlns="http://www.w3.org/2000/svg" width="45" height="45" fill="none"><path fill="#1DA1F2" d="M22.5 0C10.075 0 0 10.075 0 22.5S10.075 45 22.5 45 45 34.925 45 22.5 34.925 0 22.5 0Zm10.813 16.96c.015.236.015.482.015.724 0 7.372-5.615 15.865-15.875 15.865a15.82 15.82 0 0 1-8.569-2.501c.452.05.884.07 1.346.07a11.19 11.19 0 0 0 6.926-2.38 5.58 5.58 0 0 1-5.213-3.867c.859.125 1.632.125 2.516-.1a5.575 5.575 0 0 1-4.465-5.475v-.07a5.582 5.582 0 0 0 2.517.708 5.582 5.582 0 0 1-2.486-4.641c0-1.04.27-1.989.758-2.813a15.836 15.836 0 0 0 11.501 5.831c-.788-3.791 2.044-6.86 5.45-6.86 1.606 0 3.053.673 4.072 1.758a11.016 11.016 0 0 0 3.541-1.341 5.552 5.552 0 0 1-2.45 3.068c1.124-.12 2.209-.431 3.214-.868a11.691 11.691 0 0 1-2.798 2.892Z"/></svg>
